image/wave.svg

<svg  viewBox="0 0 1024 1073" fill="none" xmlns="http://www.w3.org/2000/svg">

<path fill-rule="evenodd" clip-rule="evenodd" d="M0 152.916C55.8111 102.277 130.933 58.6 260.267 36.4667C356.003 20.083 449.767 42.6552 538.458 64.006C600.473 78.9349 660.007 93.2667 716 93.2667C824.858 93.2667 941.878 42.9041 1024 1V230.333V230.533V842.6V920.217C968.189 970.855 893.067 1014.53 763.733 1036.67C665.076 1053.55 559.684 1035.27 461.661 1018.26L461.66 1018.26C398.053 1007.23 337.549 996.733 284 996.733C175.142 996.733 82.1219 1030.23 0 1072.13V842.6V230.533V230.333V152.916Z" fill="white"/>
<path d="M260.267 36.4667L260.182 35.9738L260.267 36.4667ZM0 152.916L-0.335978 152.546L-0.5 152.695V152.916H0ZM538.458 64.006L538.341 64.4921L538.458 64.006ZM1024 1H1024.5V0.183535L1023.77 0.55463L1024 1ZM1024 920.217L1024.34 920.587L1024.5 920.438V920.217H1024ZM763.733 1036.67L763.818 1037.16L763.733 1036.67ZM461.661 1018.26L461.524 1018.74L461.549 1018.75L461.576 1018.76L461.661 1018.26ZM461.66 1018.26L461.798 1017.78L461.772 1017.77L461.746 1017.77L461.66 1018.26ZM0 1072.13H-0.5V1072.95L0.227257 1072.58L0 1072.13ZM260.182 35.9738C130.761 58.1223 55.5495 101.84 -0.335978 152.546L0.335978 153.286C56.0726 102.715 131.106 59.0777 260.351 36.9595L260.182 35.9738ZM538.576 63.5199C449.901 42.1731 356.036 19.57 260.182 35.9738L260.351 36.9595C355.969 20.596 449.634 43.1373 538.341 64.4921L538.576 63.5199ZM716 92.7667C660.078 92.7667 600.604 78.4523 538.576 63.5199L538.341 64.4921C600.342 79.4175 659.936 93.7667 716 93.7667V92.7667ZM1023.77 0.55463C941.658 42.4552 824.73 92.7667 716 92.7667V93.7667C824.986 93.7667 942.098 43.353 1024.23 1.44537L1023.77 0.55463ZM1024.5 230.333V1H1023.5V230.333H1024.5ZM1024.5 230.533V230.333H1023.5V230.533H1024.5ZM1024.5 842.6V230.533H1023.5V842.6H1024.5ZM1024.5 920.217V842.6H1023.5V920.217H1024.5ZM763.818 1037.16C893.239 1015.01 968.451 971.293 1024.34 920.587L1023.66 919.846C967.927 970.418 892.894 1014.06 763.649 1036.17L763.818 1037.16ZM461.576 1018.76C559.581 1035.76 665.06 1054.06 763.818 1037.16L763.649 1036.17C665.091 1053.04 559.788 1034.78 461.746 1017.77L461.576 1018.76ZM461.523 1018.74L461.524 1018.74L461.798 1017.78L461.798 1017.78L461.523 1018.74ZM284 997.233C337.497 997.233 397.956 1007.72 461.575 1018.76L461.746 1017.77C398.151 1006.74 337.601 996.233 284 996.233V997.233ZM0.227257 1072.58C82.3091 1030.69 175.249 997.233 284 997.233V996.233C175.035 996.233 81.9348 1029.76 -0.227257 1071.69L0.227257 1072.58ZM-0.5 842.6V1072.13H0.5V842.6H-0.5ZM-0.5 230.533V842.6H0.5V230.533H-0.5ZM-0.5 230.333V230.533H0.5V230.333H-0.5ZM-0.5 152.916V230.333H0.5V152.916H-0.5Z" fill="white"/>
</svg>

<?xml version="1.0" encoding="utf-8"?>
<!-- Generator: Adobe Illustrator 25.0.0, SVG Export Plug-In . SVG Version: 6.00 Build 0)  -->
<svg version="1.1" id="圖層_1" xmlns="http://www.w3.org/2000/svg" xmlns:xlink="http://www.w3.org/1999/xlink" x="0px" y="0px"
	 viewBox="0 0 1024 1947" style="enable-background:new 0 0 1024 1947;" xml:space="preserve">
<style type="text/css">
	.st0{fill:#FFFFFF;}
	.st1{fill-rule:evenodd;clip-rule:evenodd;fill:#FFFFFF;}
</style>
<path class="st0" d="M260.3,36.5l-0.1-0.5L260.3,36.5z M0,152.9l-0.3-0.4l-0.2,0.1v0.2H0z M538.5,64l-0.1,0.5L538.5,64z M1024,1h0.5
	V0.2l-0.7,0.4L1024,1z M1024,920.2l0.3,0.4l0.2-0.1v-0.2H1024z M763.7,1036.7l0.1,0.5L763.7,1036.7z M461.7,1018.3l-0.1,0.5l0,0l0,0
	L461.7,1018.3z M461.7,1018.3l0.1-0.5l0,0h0L461.7,1018.3z M0,1072.1h-0.5v0.8l0.7-0.4L0,1072.1z M260.2,36
	C130.8,58.1,55.5,101.8-0.3,152.5l0.7,0.7c55.7-50.6,130.8-94.2,260-116.3L260.2,36z M538.6,63.5C449.9,42.2,356,19.6,260.2,36
	l0.2,1c95.6-16.4,189.3,6.2,278,27.5L538.6,63.5z M716,92.8c-55.9,0-115.4-14.3-177.4-29.2l-0.2,1c62,14.9,121.6,29.3,177.7,29.3
	V92.8z M1023.8,0.6c-82.1,41.9-199,92.2-307.8,92.2v1c109,0,226.1-50.4,308.2-92.3L1023.8,0.6z M1024.5,230.3V1h-1v229.3H1024.5z
	 M1024.5,230.5v-0.2h-1v0.2H1024.5z M1024.5,842.6V230.5h-1v612.1H1024.5z M1024.5,920.2v-77.6h-1v77.6H1024.5z M763.8,1037.2
	c129.4-22.2,204.6-65.9,260.5-116.6l-0.7-0.7c-55.7,50.6-130.8,94.2-260,116.3L763.8,1037.2z M461.6,1018.8
	c98,17,203.5,35.3,302.2,18.4l-0.2-1c-98.6,16.9-203.9-1.4-301.9-18.4L461.6,1018.8z M461.5,1018.7L461.5,1018.7l0.3-1l0,0
	L461.5,1018.7z M284,997.2c53.5,0,114,10.5,177.6,21.5l0.2-1c-63.6-11-124.1-21.5-177.7-21.5V997.2z M0.2,1072.6
	c82.1-41.9,175-75.3,283.8-75.3v-1c-109,0-202.1,33.5-284.2,75.5L0.2,1072.6z M-0.5,842.6v229.5h1V842.6H-0.5z M-0.5,230.5v612.1h1
	V230.5H-0.5z M-0.5,230.3v0.2h1v-0.2H-0.5z M-0.5,152.9v77.4h1v-77.4H-0.5z"/>
<path class="st1" d="M716,100.7c-56,0-115.5-15.6-177.5-31.9c-88.7-23.3-182.5-48-278.2-30.1C130.9,62.9,55.8,110.6,0,165.9v84.5
	v0.2v668.3v24.4v84.5v0.2v141.5v526.8V1947c82.1-45.8,175.1-82.3,284-82.3c53.5,0,114.1,11.5,177.7,23.5h0
	c98,18.6,203.4,38.5,302.1,20.1c129.3-24.2,204.5-71.9,260.3-127.2v-84.8v-668.3v-0.2v-24.2v-84.8V777.5V250.6v-0.2V0
	C941.9,45.8,824.9,100.7,716,100.7z"/>
</svg>
